X:48
T:48 Untitled Polka (Welch's 4-part)
C:Welch MS
I:abc2nwc
M:2/4
L:1/16
K:G
dedc BcBA|G2G2 G2AB|{d}c2A2 A2A2|{d}c2A2 A2A2|dedc BcBA|G2G2 G2AB|c2A2 G2F2|G6z2:|
A2AB c2A2|Bcde d4|A2AB c2A2|Bcde d4|e2g2 c2e2|d2g2 B2d2|c2A2 G2F2|G4G4:|
d3e d2c2|B6c2|d2g2 f2e2|e2d2 d4|d3e d2c2|B6c2|d2c2 A2F2|G4G4||
A2AB c2A2|Bcde d4|A2AB c2A2|Bcde d4|e2g2 c2e2|d2g2 B2d2|c2A2 G2F2|G4G4|]

